assets/ai/ai-preregistered-tc.svg

<svg xmlns="http://www.w3.org/2000/svg" width="100%" height="100%" viewBox="-43.52 -43.52 599.04 599.04"><path d="m 255.9665,7.9999985 c -14.42056,0 -28.90564,3.1667345 -39.89868,9.5105635 L 69.401682,102.20596 C 47.415089,114.88071 29.502973,145.96032 29.502973,171.29035 V 340.7096 c 0,25.33649 17.912116,56.42566 39.898709,69.09388 L 216.06782,494.51785 C 227.06086,500.84228 241.54594,504 255.9665,504 c 14.48556,0 28.90565,-3.15772 39.8992,-9.48215 l 146.7321,-84.71437 c 21.92209,-12.66822 39.89923,-43.75739 39.89923,-69.09388 V 171.29035 c 0,-25.33003 -17.97714,-56.40964 -39.89923,-69.08439 L 295.8657,17.510562 C 284.87215,11.166733 270.45206,7.9999985 255.9665,7.9999985 Z M 281.95971,114.59627 c 11.44607,0 21.21594,6.11088 26.32449,15.36472 l -14.16159,3.72278 c -2.65101,-3.30453 -7.57137,-5.37101 -12.1629,-5.37101 -9.57054,0 -15.51617,6.85629 -15.51617,16.36881 0,9.99105 6.52761,16.18884 15.51617,16.18884 5.56151,0 10.8694,-2.80888 13.26191,-6.773 l 14.02916,3.63752 c -4.78551,10.24324 -15.13352,17.02247 -27.29107,17.02247 -16.55458,0 -29.94307,-12.64163 -29.94307,-30.07583 0,-17.44718 13.38849,-30.0853 29.94307,-30.0853 z m -82.77241,2.25452 h 47.01322 v 12.47552 H 229.25357 V 172.4934 H 215.93491 V 129.32631 H 199.1873 Z m 155.94909,80.79264 c 4.23549,0 8.46956,1.60138 11.67059,4.81214 l 17.84616,17.82762 c 6.40203,6.42787 6.40203,16.92876 0,23.35018 L 228.22098,400.09398 c -6.46654,6.41492 -16.93867,6.41492 -23.34073,0 l -68.93284,-68.91391 c -6.40206,-6.41499 -5.04404,-18.27733 0,-23.34075 L 153.794,290.01171 c 6.40206,-6.42788 16.87419,-6.42788 23.34073,0 l 27.74552,27.72661 c 6.40206,6.41494 16.87419,6.41494 23.34073,0 L 343.45655,202.45557 c 3.20103,-3.21071 7.44432,-4.81214 11.67984,-4.81214 z"/></svg>

<svg xmlns="http://www.w3.org/2000/svg" width="100%" height="100%" viewBox="-43.52 -43.52 599.04 599.04"><path d="M255.966 8c-14.42 0-28.905 3.167-39.898 9.51L69.402 102.207c-21.987 12.675-39.899 43.754-39.899 69.084v169.42c0 25.336 17.912 56.425 39.899 69.093l146.666 84.715c10.993 6.324 25.478 9.482 39.898 9.482 14.486 0 28.906-3.158 39.9-9.482l146.732-84.715c21.922-12.668 39.899-43.757 39.899-69.093V171.29c0-25.33-17.977-56.41-39.9-69.084L295.867 17.511C284.872 11.167 270.452 8 255.966 8zm25.994 106.596c11.446 0 21.216 6.111 26.324 15.365l-14.161 3.723c-2.651-3.305-7.572-5.371-12.163-5.371-9.57 0-15.516 6.856-15.516 16.369 0 9.99 6.527 16.188 15.516 16.188 5.561 0 10.87-2.808 13.262-6.773l14.029 3.638c-4.786 10.243-15.134 17.022-27.291 17.022-16.555 0-29.943-12.641-29.943-30.075 0-17.448 13.388-30.086 29.943-30.086zm-82.773 2.255h47.014v12.475h-16.947v43.167h-13.32v-43.167h-16.747zm155.95 80.792c4.235 0 8.469 1.602 11.67 4.813l17.846 17.827c6.402 6.428 6.402 16.929 0 23.35L228.221 400.094c-6.467 6.415-16.939 6.415-23.34 0l-68.934-68.914c-6.402-6.415-5.044-18.277 0-23.34l17.847-17.828c6.402-6.428 16.874-6.428 23.34 0l27.746 27.726c6.402 6.415 16.874 6.415 23.341 0l115.236-115.282c3.2-3.211 7.444-4.813 11.68-4.813z"/></svg>
